public/assets/image/logo.svg

<svg width="62" height="45" viewBox="0 0 62 45" fill="none" xmlns="http://www.w3.org/2000/svg">
<g clip-path="url(#clip0_132_68)">
<path d="M3.2069 0.922363H61.9786V9.24757C61.9786 10.9991 60.5419 12.4207 58.7717 12.4207H0V4.09548C0 2.34392 1.43669 0.922363 3.2069 0.922363Z" fill="white"/>
<path d="M0 13.4207L20.6994 19.3004H41.2792L20.6994 13.4207H0Z" fill="white"/>
<path d="M3.2069 20.3005H41.2792V28.6257C41.2792 30.3773 39.8425 31.7989 38.0723 31.7989H0V23.4737C0 21.7221 1.43669 20.3005 3.2069 20.3005Z" fill="white"/>
<path d="M0 32.7988L10.3048 35.8905H20.7208L10.432 32.7988H0Z" fill="white"/>
<path d="M3.2069 36.8904H20.6994V40.9044C20.6994 42.6559 19.2628 44.0775 17.4926 44.0775H0V40.0635C0 38.3119 1.43669 36.8904 3.2069 36.8904Z" fill="white"/>
</g>
<defs>
<clipPath id="clip0_132_68">
<rect width="62" height="43.1552" fill="white" transform="translate(0 0.922363)"/>
</clipPath>
</defs>
</svg>

<svg width="62" height="45" fill="none" xmlns="http://www.w3.org/2000/svg"><g clip-path="url(#a)" fill="#fff"><path d="M3.207.922h58.772v8.326c0 1.751-1.437 3.173-3.207 3.173H0V4.095C0 2.344 1.437.922 3.207.922ZM0 13.42l20.7 5.88h20.58L20.7 13.42H0Zm3.207 6.88h38.072v8.326c0 1.751-1.437 3.173-3.207 3.173H0v-8.325C0 21.722 1.437 20.3 3.207 20.3ZM0 32.799l10.305 3.092H20.72l-10.289-3.092H0Zm3.207 4.091h17.492v4.014c0 1.752-1.436 3.173-3.206 3.173H0v-4.014c0-1.751 1.437-3.173 3.207-3.173Z"/></g><defs><clipPath id="a"><path fill="#fff" transform="translate(0 .922)" d="M0 0h62v43.155H0z"/></clipPath></defs></svg>
